X: 42676
T: Whistlebinkies, The
R: reel
M: 4/4
K: Bminor
A|:B~f3 ffef|ffef eccB|A~f3 ffef|ffec ~B3c:|
|:~B3c ~d3e|g2fe f2ed|~c3de2cA|1 g2fe f2ec:|2 dfec B3A||

